X: 102
T: Pres. Lincoln's Hornpipe
C: Harry Carleton
B: NEFR #102
B: Ryan/Cole
N: Nothing seems to be known about Harry Carleton, who may be a pseudonym.
R: hornpipe
Z: 2012 John Chambers <jc:trillian.mit.edu>
M: C|
L: 1/8
K: A
E2 \
| A2cA EA cA | GA BG A2 c2 | fe dc dc BA | GA BG Ed cB |
| A2cA EA cA | GA BG A2 c2 | df ed cB AG | A2 c2 A2 :|
|: cd \
| eA ce ag fe | GA Bc dE FG | A,C EA Fd BA | GA BG E2 cd |
| eA ce ag fe | fB df ba gf |  ce Ac Bd GB | A2 c2 A2 :|


